build/category/TestDesignerOutline.svg

<svg xmlns="http://www.w3.org/2000/svg" fill="none" viewBox="0 0 24 24" focusable="false"><path d="M0 0H24V24H0z"/><path fill="#74767B" fill-rule="evenodd" d="M20 12.3752C20 12.5476 19.9315 12.7129 19.8096 12.8348C19.4001 13.2443 18.7 12.9543 18.7 12.3752L18.7 7C18.7 6.06112 17.9389 5.3 17 5.3L7 5.3C6.06112 5.3 5.3 6.06112 5.3 7L5.3 17C5.3 17.9389 6.06112 18.7 7 18.7L12.3752 18.7C12.9543 18.7 13.2443 19.4001 12.8348 19.8096C12.7129 19.9315 12.5476 20 12.3752 20L7 20C5.34315 20 4 18.6569 4 17L4 7C4 5.34314 5.34315 4 7 4L17 4C18.6569 4 20 5.34314 20 7L20 12.3752ZM8.01515 7.6059C8.01515 7.24692 8.30617 6.9559 8.66515 6.9559L15.335 6.9559C15.6939 6.9559 15.985 7.24692 15.985 7.6059C15.985 7.96489 15.6939 8.2559 15.335 8.2559L12.65 8.2559L12.65 15.3988C12.65 15.7577 12.359 16.0488 12 16.0488C11.641 16.0488 11.35 15.7577 11.35 15.3988L11.35 8.2559L8.66515 8.2559C8.30617 8.2559 8.01515 7.96489 8.01515 7.6059ZM20.3853 14.0849C20.6587 13.8115 21.1019 13.8115 21.3753 14.0849L21.9074 14.6171C22.1808 14.8904 22.1808 15.3336 21.9074 15.607L21.2066 16.3078C21.0894 16.425 20.8995 16.425 20.7823 16.3078L19.6845 15.21C19.5673 15.0929 19.5673 14.9029 19.6845 14.7857L20.3853 14.0849ZM18.576 15.894C18.6932 15.7768 18.8831 15.7768 19.0003 15.894L20.0981 16.9918C20.2153 17.1089 20.2153 17.2989 20.0981 17.416L16.5573 20.9569C16.2002 21.3139 15.7589 21.5751 15.2741 21.7161L14.4158 21.9659C14.1902 22.0315 13.9801 21.8242 14.0428 21.5978L14.28 20.7409C14.4183 20.2415 14.6835 19.7864 15.05 19.42L18.576 15.894Z"/></svg>

<svg xmlns="http://www.w3.org/2000/svg" fill="none" viewBox="0 0 24 24" focusable="false"><path fill="#74767B" fill-rule="evenodd" d="M20 12.37c0 .17-.07.34-.2.46-.4.41-1.1.12-1.1-.46V7c0-.94-.77-1.7-1.7-1.7H7c-.94 0-1.7.76-1.7 1.7v10c0 .93.76 1.7 1.7 1.7h5.37c.58 0 .87.7.46 1.1-.12.13-.29.2-.46.2H7c-1.66 0-3-1.35-3-3V7c0-1.66 1.34-3 3-3h10c1.65 0 3 1.34 3 3zM8.01 7.6c0-.36.29-.65.65-.65h6.67c.36 0 .65.29.65.65s-.29.65-.65.65h-2.69v7.14c0 .36-.29.65-.64.65-.36 0-.65-.29-.65-.65V8.25H8.66c-.36 0-.65-.29-.65-.65m12.37 6.48c.27-.27.72-.27.99 0l.53.53c.28.28.28.72 0 .99l-.7.7a.29.29 0 0 1-.42 0l-1.1-1.09a.3.3 0 0 1 0-.43zM19 15.89a.3.3 0 0 0-.43 0l-3.52 3.53c-.37.36-.64.82-.77 1.32l-.24.85c-.06.23.15.44.37.37l.86-.25c.48-.14.93-.4 1.28-.76l3.54-3.54a.29.29 0 0 0 0-.42z"/></svg>
